X:538
T:Jenny Dang the Weaver
S:Various books, sessions, etc
Z:Nigel Gatherer
M:4/4
L:1/8
K:D
d>A A/A/A AFAB | d>A A/A/A f2 ef  |
d>B B/B/B BABd | ABde      f2 ef :|
d2  fd    efge | defd      e2 dB  |
defd      efge | a>A A/A/A f2 ef  |
d2  fd    efge | defd      e2 dB  |
defd      efge | a>A A/A/A fgef  |]
<end>
<start>
